X: 1
T: Three Meet
T: the Pleasures of the Town
O: England
R: jig
Z: 1997 by John Chambers <jc:trillian.mit.edu>
N: Schofield & Karpeles p.6
M: 6/8
L: 1/8
K: D
A \
|: "D"F2A d2A | "G"B2B "Em"e2d | "A7"d>ed cBc | "D"d2e "(A7)"f2A \
|| "D"F2A d2A | "G"B2B "Em"e2d | "A7"d>ed cBc | "D"d3- d3 :|
|: "D"f2a "A7"e2a | "D"fed "A7"cBA | "D"d2d "A7"ede | "D"faf "A7"e3 \
|| "D"Md'3 "A7"Ma3 | "G"Mg3 "D"Mf3 | "Em"ede "D"fed | "A7"B2c "D"d3 :|
